X:1
T: Miss Wharton Duff's Reel
C:William Marshall
R:Reel
Q: 232
K:Bb
M:4/4
L:1/16
|:B,2|B4 c4 dfdB AcAF|E2g2 D2f2 C2ec dBAF|B4 c4 dfdB AcAF|E2g2 B2b2 dBcA B2B,2|
B4 c4 dfdB AcAF|E2g2 D2f2 C2ec dBAF|B4 c4 dfdB AcAF|E2g2 B2b2 dBcA B2((3fga) |
b2f2 edcB bfed edcB|e2g2 G2c2 ecdB BAGF|E2g2 D2f2 C2ec dBAF|bfdB ecdB FBAc B2((3fgf) |
b2f2 edcB bfed edcB|e2g2 G2c2 ecdB BAGF|E2g2 D2f2 C2ec dBAF|bfdB ecdB FBAc B2:|
